X: 42633
T: Whiskey Before Breakfast
R: reel
M: 4/4
K: Dmajor
DEFG AFDF|ABAG FEDF|GABG FGAF|EDEF GFEG|
DEFG AFDF|ABAG FEDF|GABG FGAF|1 EDEF D2 FE:|2 EDEF D3 A||
FABc d2 dc|defg afdf|edef gfef|gfed cABc|
defd cdec|BABc dAFA|GABG FGAF|1 EDEF D3 A:|2 EDEF D2 FE||

